!!!!SEGMENT: pl-gd--ee-1638--005-014_marenzio-luca--il-primo-libro-de-madrigali-spirituali-a-cinque-voci-vergine-gloriosa.krn
!!!cenid: 15xx:967
!!!COM: Marenzio, Luca
!!!COM-rismID: pe30003955
!!!CDT: ~1553-1599/08/22
!!!CNT: Italian
!!!GTL: Il Primo libro de madrigali spirituali a cinque voci
!!!OTL: Vergine gloriosa
!!!OMV: 014
!!!PDT: 1588
!!!AGN:
!!!SMS-siglum: PL-GD
!!!SMS-shelfmark: Ee 1638
!!!SMS-shelfwork: 005-014 G
!!!SMS-variant:
!!!SMS-altvar:
!!!NIFC-rismSourceID: 990039269
!!!NIFC-islandoraID: pl-gd:57883
!!!URL-pdf-islandora: https://repozytorium.nifc.pl/islandora/object/pl-gd%3A57883/datastream/PDF/view
!!!URL-scan: https://polish.musicsources.pl/pl/lokalizacje/galeria/klocki-introligatorskie/655 @EN{Scan on Polish Music Herritage in Open Access Website} @PL{Skany w portalu Dziedzictwo Muzyki Polskiej w otwartym dostępie}
!!!ONB-nifc: UWAGA: zbiór na stronach: Canto: s. 666-677, Alto: s. 514-525, Tenore: s. 362-373, Bassus: s. 210-221, Quinto: s. 58-69. Uwaga: utwory podzielone wg tytułów w spisach treści dostępnych na końcu każdej księgi głosowej.
!!!AIN: 1 alto 1 bass  1 soprn 1 tenor  1 vox
!!!key: e:phr
**kern	**text	**mod-text	**kern	**text	**mod-text	**kern	**text	**mod-text	**kern	**text	**mod-text	**kern	**text	**mod-text
*part4	*part4	*part4	*part5	*part5	*part5	*part3	*part3	*part3	*part2	*part2	*part2	*part1	*part1	*part1
*staff5	*staff5	*staff5	*staff3	*staff3	*staff3	*staff4	*staff4	*staff4	*staff2	*staff2	*staff2	*staff1	*staff1	*staff1
*I"BASSO	*	*	*I"QVINTO	*	*	*I"TENORE	*	*	*I"ALTO	*	*	*I"CANTO	*	*
*mI"Basso	*	*	*mI"Tenore II	*	*	*mI"Tenore I	*	*	*mI"Alto	*	*	*mI"Soprano	*	*
*I'B	*	*	*I'V	*	*	*I'T	*	*	*I'A	*	*	*I'S	*	*
*mI'B	*	*	*mI'T II	*	*	*mI'T I	*	*	*mI'A	*	*	*mI'S	*	*
*ICvox	*	*	*ICvox	*	*	*ICvox	*	*	*ICvox	*	*	*ICvox	*	*
*Ibass 	*	*	*Ivox	*	*	*Itenor 	*	*	*Ialto	*	*	*Isoprn	*	*
*clefF3	*	*	*clefC3	*	*	*clefC3	*	*	*clefC2	*	*	*clefG2	*	*
*mclefF4	*	*	*mclefGv2	*	*	*mclefGv2	*	*	*mclefG2	*	*	*	*	*
*k[]	*	*	*k[]	*	*	*k[]	*	*	*k[]	*	*	*k[]	*	*
*e:phr	*	*	*e:phr	*	*	*e:phr	*	*	*e:phr	*	*	*e:phr	*	*
*M2/1	*	*	*M2/1	*	*	*M2/1	*	*	*M2/1	*	*	*M2/1	*	*
*met(C|)	*	*	*met(C|)	*	*	*met(C|)	*	*	*met(C|)	*	*	*met(C|)	*	*
*mmet(c|)	*	*	*mmet(c|)	*	*	*met(c|)	*	*	*met(c|)	*	*	*met(c|)	*	*
=1-	=1-	=1-	=1-	=1-	=1-	=1-	=1-	=1-	=1-	=1-	=1-	=1-	=1-	=1-
1r	.	.	1r	.	.	1r	.	.	1r	.	.	1.ee	VEr-	Ver-
1.E	VEr-	Ver-	1.e	VEr-	Ver-	1.B	VEr-	Ver-	1.g#	VEr-	Ver-	.	.	.
.	.	.	.	.	.	.	.	.	.	.	.	2ee\	-gi-	-gi-
=2-	=2-	=2-	=2-	=2-	=2-	=2-	=2-	=2-	=2-	=2-	=2-	=2-	=2-	=2-
.	.	.	.	.	.	.	.	.	.	.	.	1.b	-ne	-ne
2E/	-gi-	-gi-	2e\	-gi-	-gi-	2B/	-gi-	-gi-	2g#yX\	-gi-	-gi-	.	.	.
1E	-ne	-ne	1B	-ne	-ne	1e	-ne	-ne	1g#	-ne	-ne	.	.	.
.	.	.	.	.	.	.	.	.	.	.	.	1ee\	glo-	glo-
=3-	=3-	=3-	=3-	=3-	=3-	=3-	=3-	=3-	=3-	=3-	=3-	=3-	=3-	=3-
2A\	glo-	glo-	2c/	glo-	glo-	2e\	glo-	glo-	2a\	glo-	glo-	.	.	.
2G\	-ri-	-ri-	2B/	-ri-	-ri-	2g\	-ri-	-ri-	2b\	-ri-	-ri-	2ee\	-ri-	-ri-
1.F	-o-	-o-	2.A/	-o-	-o-	1.a	-o-	-o-	1.cc	-o-	-o-	1.ff	-o-	-o-
.	.	.	4B/	.	.	.	.	.	.	.	.	.	.	.
=4-	=4-	=4-	=4-	=4-	=4-	=4-	=4-	=4-	=4-	=4-	=4-	=4-	=4-	=4-
.	.	.	2c/	.	.	.	.	.	.	.	.	.	.	.
2C/	-ſa e	-sa e	2c/	-ſa e	-sa e	2.g\	-ſa e	-sa e	2cc\	-ſa e	-sa e	2ee\	-ſa e	-sa e
2.G\	lie-	lie-	2d\	lie-	lie-	.	.	.	2.b\	lie-	lie-	2.dd\	lie-	lie-
.	.	.	.	.	.	8f\	.	.	.	.	.	.	.	.
.	.	.	.	.	.	8e\	.	.	.	.	.	.	.	.
.	.	.	2g\	-ta	-ta,	1d\	.	.	.	.	.	.	.	.
8F/	.	.	.	.	.	.	.	.	8a\	.	.	4ee\	.	.
8E/	.	.	.	.	.	.	.	.	8gny\	.	.	.	.	.
=5-	=5-	=5-	=5-	=5-	=5-	=5-	=5-	=5-	=5-	=5-	=5-	=5-	=5-	=5-
4D/	.	.	2r	.	.	.	.	.	0a	.	.	4ff\	.	.
4E/	.	.	.	.	.	.	.	.	.	.	.	4ee\	.	.
4F/	.	.	2f\	e	e	2.a\	lie-	lie-	.	.	.	2.dd\	.	.
4D/	.	.	.	.	.	.	.	.	.	.	.	.	.	.
1A	.	.	1e	lie-	lie-	.	.	.	.	.	.	.	.	.
.	.	.	.	.	.	8g\	.	.	.	.	.	8cc#X\	.	.
.	.	.	.	.	.	8f\	.	.	.	.	.	8b\	.	.
!	!	!	!	!	!	!	!	!	!	!	!	!LO:SIC:s=2cc#\	!	!
.	.	.	.	.	.	2e\	.	.	.	.	.	2cc#X\	.	.
*	*	*	*	*	*	*	*	*	*	*	*	*custos:dd	*	*
!	!	!	!	!	!	!	!	!	!	!	!	!LO:LB:g=original	!	!
=6-	=6-	=6-	=6-	=6-	=6-	=6-	=6-	=6-	=6-	=6-	=6-	=6-	=6-	=6-
2D/	-ta	-ta,	1d	-ta	-ta,	2f#X\	-ta	-ta,	2a\	-ta	-ta,	2dd\	-ta	-ta,
4r	.	.	.	.	.	4r	.	.	4r	.	.	4r	.	.
4G\	o	o	.	.	.	4g\	o	o	4d/	o	o	4b/	o	o
*custos:C	*	*	*	*	*	*custos:e	*	*	*	*	*	*	*	*
!LO:LB:g=original	!	!	!	!	!	!LO:LB:g=original	!	!	!	!	!	!	!	!
1C	quan-	quan-	1r	.	.	1e	quan-	quan-	1g	quan-	quan-	1ccny	quan-	quan-
*	*	*	*custos:g	*	*	*	*	*	*custos:g	*	*	*	*	*
!	!	!	!LO:LB:g=original	!	!	!	!	!	!LO:LB:g=original	!	!	!	!	!
=7-	=7-	=7-	=7-	=7-	=7-	=7-	=7-	=7-	=7-	=7-	=7-	=7-	=7-	=7-
1G	-to	-to	2r	.	.	1d	-to	-to,	2g\	-to	-to	2b/	-to	-to
.	.	.	2g\	o	o	.	.	.	4r	.	.	4r	.	.
.	.	.	.	.	.	.	.	.	4b\	Al-	al-	4gg\	Al-	al-
1r	.	.	1c	quan-	quan-	1r	.	.	4.cc\	-leg-	-le-	4.ee\	-leg-	-le-
.	.	.	.	.	.	.	.	.	8b\	-ro è	-gro è	8dd\	-ro è	-gro è
.	.	.	.	.	.	.	.	.	4a\	fat-	fat-	4cc\	fat-	fat-
.	.	.	.	.	.	.	.	.	4cc\	-to il	-to il	4ee\	-to il	-to il
=8-	=8-	=8-	=8-	=8-	=8-	=8-	=8-	=8-	=8-	=8-	=8-	=8-	=8-	=8-
00r	.	.	1g	-to	-to,	2r	.	.	4b\	tuo	tuo	4dd\	tuo	tuo
.	.	.	.	.	.	.	.	.	4a\	do-	do-	4cc\	do-	do-
.	.	.	.	.	.	2g\	o	o	2.b\	-glio-	-glio-	2.dd\	-glio-	-glio-
.	.	.	1r	.	.	1e	quan-	quan-	.	.	.	.	.	.
.	.	.	.	.	.	.	.	.	4a\	-ſo	-so	4cc\	-ſo	-so
.	.	.	.	.	.	.	.	.	2g#X\	ſta-	sta-	2b/	ſta-	sta-
=9-	=9-	=9-	=9-	=9-	=9-	=9-	=9-	=9-	=9-	=9-	=9-	=9-	=9-	=9-
.	.	.	2r	.	.	2A/	-to	-to,	2a\	-to	-to,	2cc#X\	-to	-to,
*	*	*	*	*ij	*ij	*	*ij	*ij	*	*	*	*	*	*
.	.	.	2f#X\	o	o	2d\	o	o	2a\	o	o	2dd\	o	o
.	.	.	1g	quan-	quan-	1G	quan-	quan-	1b	quan-	quan-	1dd	quan-	quan-
=10-	=10-	=10-	=10-	=10-	=10-	=10-	=10-	=10-	=10-	=10-	=10-	=10-	=10-	=10-
4r	.	.	1f#X	-to	-to	1.d	-to	-to	2a\	-to	-to	1dd	-to	-to
4d\	Al-	al-	.	.	.	.	.	.	.	.	.	.	.	.
4.B\	-le-	-le-	.	.	.	.	.	.	4r	.	.	.	.	.
.	.	.	.	.	.	.	.	.	4dd\	Al-	al-	.	.	.
8A\	-gro è	-gro e	.	.	.	.	.	.	.	.	.	.	.	.
*	*	*	*	*Xij	*Xij	*	*	*	*	*	*	*custos:gg	*	*
!	!	!	!	!	!	!	!	!	!	!	!	!LO:LB:g=original	!	!
4G\	fat-	fat-	2r	.	.	.	.	.	4.b\	-le-	-le-	4r	.	.
4G\	-to il	-to il	.	.	.	.	.	.	.	.	.	4gg\	Al-	al-
.	.	.	.	.	.	.	.	.	8a\	-gro è	-gro è	.	.	.
1c\	tuo	tuo	4r	.	.	2r	.	.	4gny\	fat-	fat-	4.ee\	-le-	-le-
.	.	.	4g\	Al-	al-	.	.	.	4e/	-to il	-to il	.	.	.
.	.	.	.	.	.	.	.	.	.	.	.	8dd\	-gro è	-gro è
*	*	*	*	*	*	*	*Xij	*Xij	*custos:g	*	*	*	*	*
!	!	!	!	!	!	!	!	!	!LO:LB:g=original	!	!	!	!	!
=11-	=11-	=11-	=11-	=11-	=11-	=11-	=11-	=11-	=11-	=11-	=11-	=11-	=11-	=11-
.	.	.	4.e\	-le-	-le-	4r	.	.	1g	tuo	tuo	2ccny\	fat-	fat-
.	.	.	.	.	.	4g\	Al-	al-	.	.	.	.	.	.
.	.	.	8d\	-gro è	-gro è	.	.	.	.	.	.	.	.	.
2C/	dog-	do-	4c/	fat-	fat-	4.e\	-le-	-le-	.	.	.	1gg	-to il	-to il
.	.	.	4c/	-to il	-to il	.	.	.	.	.	.	.	.	.
.	.	.	.	.	.	8d\	-gro è	-gro è	.	.	.	.	.	.
1F	-lio-	-glio-	2.A/	tuo	tuo	4c/	fat-	fat-	1a	do-	do-	.	.	.
.	.	.	.	.	.	4c/	-to il	-to il	.	.	.	.	.	.
.	.	.	.	.	.	2fny\	tuo	tuo	.	.	.	2ff\	tuo	tuo
.	.	.	4B/	do-	do-	.	.	.	.	.	.	.	.	.
=12-	=12-	=12-	=12-	=12-	=12-	=12-	=12-	=12-	=12-	=12-	=12-	=12-	=12-	=12-
1A	-ſo	-so	1c	-glio-	-glio-	2r	.	.	1a	-glio-	-glio-	2ee\	-do-	-do-
.	.	.	.	.	.	.	.	.	.	.	.	.	.	.
.	.	.	.	.	.	2c/	-dog-	-do-	.	.	.	1ff	-glio-	-glio-
0G	ſta-	sta-	1g\	-ſo	-so	2d\	-lio-	-glio-	2b\	-ſo	-so	.	.	.
.	.	.	.	.	.	2e\	-ſo	-so	1cc\	ſta-	sta-	2ee\	-ſo	-so
=13-	=13-	=13-	=13-	=13-	=13-	=13-	=13-	=13-	=13-	=13-	=13-	=13-	=13-	=13-
.	.	.	1g	ſta-	sta-	4g\	ſta-	sta-	.	.	.	1dd	ſta-	sta-
.	.	.	.	.	.	8f\	.	.	.	.	.	.	.	.
.	.	.	.	.	.	8e\	.	.	.	.	.	.	.	.
.	.	.	.	.	.	2d\	.	.	2b\	-to	-to:	.	.	.
*	*	*	*	*	*	*custos:e	*	*	*	*	*	*	*	*
!	!	!	!	!	!	!LO:LB:g=original	!	!	!	!	!	!	!	!
2C/	-to	-to:	1g\	-to	-to:	2e\	-to	-to:	2r	.	.	2cc\	-to	-to:
2r	.	.	.	.	.	4.c/	Gior-	gior-	4.cc\	Gior-	gior-	4.ee\	Gior-	gior-
.	.	.	.	.	.	8B/	-no	-no	8dd\	-no	-no	8dd\	-no	-no
=14-	=14-	=14-	=14-	=14-	=14-	=14-	=14-	=14-	=14-	=14-	=14-	=14-	=14-	=14-
0r	.	.	0r	.	.	4c/	fe-	fe-	4cc\	fe-	fe-	4ee\	fe-	fe-
.	.	.	.	.	.	2g\	-li-	-li-	2b\	-li-	-li-	2dd\	-li-	-li-
.	.	.	.	.	.	.	.	.	.	.	.	.	.	.
.	.	.	.	.	.	4a\	-ce e	-ce e	4a\	-ce e	-ce e	4cc\	-ce e	-ce e
.	.	.	.	.	.	2e\	ſan-	san-	2g#X\	ſan-	san-	2b/	ſan-	san-
.	.	.	.	.	.	2e\	-to	-to,	2g#\	-to	-to,	2b/	-to	-to,
=15-	=15-	=15-	=15-	=15-	=15-	=15-	=15-	=15-	=15-	=15-	=15-	=15-	=15-	=15-
4.C/	Gior-	gior-	4.e\	Gior-	gior-	4.c/	Gior-	gior-	4r	.	.	4.gg\	Gior-	gior-
.	.	.	.	.	.	.	.	.	4.gny\	Gior-	gior-	.	.	.
8BB/	-no	-no	8d\	-no	-no	8d\	-no	-no	.	.	.	8gg\	-no	-no
*	*	*	*custos:e	*	*	*	*	*	*	*	*	*	*	*
!	!	!	!LO:LB:g=original	!	!	!	!	!	!	!	!	!	!	!
4C/	fe-	fe-	4e\	fe-	fe-	4c/	fe-	fe-	.	.	.	4gg\	fe-	fe-
.	.	.	.	.	.	.	.	.	8a\	-no	-no	.	.	.
*	*	*	*	*	*	*	*	*	*	*	*	*custos:gg	*	*
!	!	!	!	!	!	!	!	!	!	!	!	!LO:LB:g=original	!	!
2G\	-li-	-li-	2d\	-li-	-li-	2B/	-li-	-li-	4b\	fe-	fe-	2gg\	-li-	-li-
.	.	.	.	-no	-no	.	.	.	.	.	.	.	.	.
.	.	.	.	.	.	.	.	.	4b\	-li-	-li-	.	.	.
4A\	-ce e	-ce e	4c/	-ce e	-ce e	4e\	-ce e	-ce e	4a\	-ce e	-ce e	4ee\	-ce e	-ce e
*custos:E	*	*	*	*	*	*	*	*	*	*	*	*	*	*
!LO:LB:g=original	!	!	!LO:N:vis=1	!	!	!	!	!	!LO:MO:mod=2g#[	!	!	!	!	!
1E/	ſan-	san-	[y2B	ſan-	san-	1e\	ſan-	san-	1g#X\	ſan-	san-	1ee\	ſan-	san-
.	.	.	.	.	.	.	.	.	.	.	.	.	.	.
=16-	=16-	=16-	=16-	=16-	=16-	=16-	=16-	=16-	=16-	=16-	=16-	=16-	=16-	=16-
!	!	!	!	!	!	!	!	!	!LO:MO:null:mod=2g#]	!	!	!	!	!
.	.	.	2Byy]	.	.	.	.	.	.	.	.	.	.	.
!	!	!	!	!	!	!	!	!	!LO:SIC:s=2g#X\	!	!	!	!	!
2E/	-to	-to,	2B/	-to	-to,	4e\	-to	-to,	2g#yX\	-to	-to,	2b/	-to	-to,
.	.	.	.	.	.	4e\	Quan-	quan-	.	.	.	.	.	.
*	*	*	*	*	*	*	*	*	*custos:a	*	*	*	*	*
!	!	!	!	!	!	!	!	!	!LO:LB:g=original	!	!	!	!	!
2A\	Quan-	quan-	2c/	Quan-	quan-	4e\	-do	-do	1r	.	.	1r	.	.
.	.	.	.	.	.	4e\	ri-	ri-	.	.	.	.	.	.
4A\	-do	-do	4c/	-do	-do	2f#X\	-ſor-	-sor-	.	.	.	.	.	.
4A\	ri-	ri-	4c/	ri-	ri-	.	.	.	.	.	.	.	.	.
=17-	=17-	=17-	=17-	=17-	=17-	=17-	=17-	=17-	=17-	=17-	=17-	=17-	=17-	=17-
4.B\	-ſor-	-sor-	4.d\	-ſor-	-sor-	1g	-ſe	-se,	1r	.	.	1r	.	.
.	.	.	.	.	.	.	.	.	.	.	.	.	.	.
8A\	-ſe il	-se il	8c/	-ſe	-se il	.	.	.	.	.	.	.	.	.
4G\	tuo	tuo	4B/	il	tuo	.	.	.	.	.	.	.	.	.
4G\	fi-	fi-	4B/	tuo	fi-	.	.	.	.	.	.	.	.	.
.	.	.	.	.	.	.	.	.	.	.	.	.	.	.
4A\	-gliuol	-gliol’	4c/	fi-	-gliol’	1r	.	.	2a\	Quan-	quan-	2cc\	Quan-	quan-
4B\	a-	a-	4d\	-gliuol a-	a-	.	.	.	.	.	.	.	.	.
2c\	-ma-	-ma-	2e\	-ma-	-ma-	.	.	.	4a\	-do	-do	4cc\	-do	-do
.	.	.	.	.	.	.	.	.	4a\	ri-	ri-	4cc\	ri-	ri-
=18-	=18-	=18-	=18-	=18-	=18-	=18-	=18-	=18-	=18-	=18-	=18-	=18-	=18-	=18-
1G	-to	-to,	2d\	-to	-to,	4r	.	.	4.b\	-ſor-	-sor-	4.dd\	-ſor-	-sor-
.	.	.	.	.	.	4d\	Qua(n)-	qua(n)-	.	.	.	.	.	.
.	.	.	.	.	.	.	.	.	8a\	-ſe il	-se il	8cc\	-se il	-se il
*	*	*	*	*	*	*custos:d	*	*	*	*	*	*	*	*
!	!	!	!	!	!	!LO:LB:g=original	!	!	!	!	!	!	!	!
.	.	.	2r	.	.	4d\	-do	-do	4gny\	tuo	tuo	4b/	tuo	tuo
.	.	.	.	.	.	4d\	ri-	ri-	4g\	fi-	fi-	4b/	fi-	fi-
1r	.	.	2A/	Quan-	quan-	4e\	-ſor-	-sor-	4a\	-gliuol	-gliol’	4cc\	-gliuol	-gliol’
.	.	.	.	.	.	4d\	-ſe il	-se il	4b\	a-	a-	4dd\	a-	a-
.	.	.	4A/	-do	-do	4c/	tuo	tuo	2cc\	-ma-	-ma-	2ee\	-ma-	-ma-
.	.	.	4A/	ri-	ri-	4c/	fi-	fi-	.	.	.	.	.	.
=19-	=19-	=19-	=19-	=19-	=19-	=19-	=19-	=19-	=19-	=19-	=19-	=19-	=19-	=19-
1r	.	.	4.B/	-ſor-	-sor-	2.d\	-gliuol	-gliol’	1b	-to	-to,	0dd	-to	-to,
.	.	.	.	.	.	.	.	.	.	.	.	.	.	.
.	.	.	8A/	-ſe il	-se il	.	.	.	.	.	.	.	.	.
*	*	*	*custos:G	*	*	*	*	*	*	*	*	*	*	*
!	!	!	!LO:LB:g=original	!	!	!	!	!	!	!	!	!	!	!
.	.	.	4G/	tuo	tuo	.	.	.	.	.	.	.	.	.
.	.	.	4G/	fi-	fi-	4e\	a-	a-	.	.	.	.	.	.
.	.	.	.	.	.	.	.	.	.	.	.	.	.	.
2D/	Qua(n)-	Qua(n)-	4A/	-gliuol’	-gliol’	4f#X\	-ma-	-ma-	1r	.	.	.	.	.
.	.	.	4B/	a-	a-	2g\	.	.	.	.	.	.	.	.
4D/	-do	-do	2A/	-ma-	-ma-	.	.	.	.	.	.	.	.	.
!	!	!	!	!	!	!LO:SIC:s=4f#\	!	!	!	!	!	!	!	!
4D/	ri-	ri-	.	.	.	4f#X\	.	.	.	.	.	.	.	.
=20-	=20-	=20-	=20-	=20-	=20-	=20-	=20-	=20-	=20-	=20-	=20-	=20-	=20-	=20-
4.E/	-ſor-	-sor-	4G/	-to	-to	1g	-to	-to,	4r	.	.	4r	.	.
.	.	.	4G/	il	il	.	.	.	4g\	il	il	4b/	il	il
8D/	-ſe il	-se il	.	.	.	.	.	.	.	.	.	.	.	.
4C/	tuo	tuo	4g\	tuo	tuo	.	.	.	4e/	tuo	tuo	4ee\	tuo	tuo
4C/	fi-	fi-	4e\	fi-	fi-	.	.	.	4g\	fig-	fi-	4ee\	fig-	fi-
*custos:D	*	*	*	*	*	*	*	*	*	*	*	*	*	*
!LO:LB:g=original	!	!	!	!	!	!	!	!	!	!	!	!	!	!
4D/	-gliuol’	-gliol’	4a\	-gliol’	-gliol’	1r	.	.	4f\	-liuol’	-gliol’	4dd\	-liol	-gliol’
4E/	a-	a-	4g\	a-	a-	.	.	.	4g\	a-	a-	4cc\	a-	a-
2F/	-ma-	-ma-	2fny\	-ma-	-ma-	.	.	.	2a\	-ma-	-ma-	2cc\	-ma-	-ma-
.	.	.	.	.	.	.	.	.	.	.	.	.	.	.
=21-	=21-	=21-	=21-	=21-	=21-	=21-	=21-	=21-	=21-	=21-	=21-	=21-	=21-	=21-
1C	-to	-to,	1e	-to	-to,	2r	.	.	2.g\	-to	-to,	1cc	-to	-to,
.	.	.	.	.	.	1g	Dhe	deh	.	.	.	.	.	.
.	.	.	.	.	.	.	.	.	4a\	.	.	.	.	.
*	*	*	*	*	*	*	*	*	*	*	*	*custos:dd	*	*
!	!	!	!	!	!	!	!	!	!	!	!	!LO:LB:g=original	!	!
1G	Dhe	deh	1d\	Dhe	deh	.	.	.	1b	.	.	2r	.	.
.	.	.	.	.	.	1d\	fa	fa,	.	.	.	1dd\	dhe	deh
*	*	*	*	*	*	*	*	*	*custos:a	*	*	*	*	*
!	!	!	!	!	!	!	!	!	!LO:LB:g=original	!	!	!	!	!
=22-	=22-	=22-	=22-	=22-	=22-	=22-	=22-	=22-	=22-	=22-	=22-	=22-	=22-	=22-
1D	fa	fa,	1f	fa	fa,	.	.	.	1a	Dhe	deh	.	.	.
.	.	.	.	.	.	1A	Dhe	deh	.	.	.	1ff	fa	fa,
1A	Dhe	deh	1c\	Dhe	deh	.	.	.	1cc	fa	fa,	.	.	.
.	.	.	.	.	.	2c/	fa	fa,	.	.	.	1ee\	dhe	deh
=23-	=23-	=23-	=23-	=23-	=23-	=23-	=23-	=23-	=23-	=23-	=23-	=23-	=23-	=23-
2.c\	fa	fa	2.e\	fa	fa	4r	.	.	4r	.	.	.	.	.
.	.	.	.	.	.	4c/	dhe	deh	4g\	Dhe	deh	.	.	.
.	.	.	.	.	.	2.e\	fa	fa	4cc\	fa	fa	2.gg\	fa	fa
4G\	ch’an-	ch’an-	4d\	ch’an-	ch’an-	.	.	.	4b\	ch’an-	ch’an-	.	.	.
2.A\	-ch’io	-ch’io	2.c/	-ch’io	-ch’io	.	.	.	2.a\	-ch’io	-ch’io	.	.	.
.	.	.	.	.	.	4d\	ch’a(n)-	ch’a(n)-	.	.	.	4ff\	ch’an-	ch’an-
.	.	.	.	.	.	2.c/	-ch’io	-ch’io	.	.	.	2.ee\	-ch’io	-ch’io
4E/	ri-	ri-	4B/	ri-	ri-	.	.	.	4g\	ri-	ri-	.	.	.
*	*	*	*custos:A	*	*	*	*	*	*	*	*	*	*	*
!	!	!	!LO:LB:g=original	!	!	!	!	!	!	!	!	!	!	!
=24-	=24-	=24-	=24-	=24-	=24-	=24-	=24-	=24-	=24-	=24-	=24-	=24-	=24-	=24-
2.F/	-ſor-	-sor-	2.A/	-ſor-	-sor-	.	.	.	2.f\	-ſor-	-sor-	.	.	.
.	.	.	.	.	.	4B/	ri-	ri-	.	.	.	4dd\	ri-	ri-
*	*	*	*	*	*	*custos:A	*	*	*	*	*	*	*	*
!	!	!	!	!	!	!LO:LB:g=original	!	!	!	!	!	!	!	!
.	.	.	.	.	.	2.A/	-ſor-	-sor-	.	.	.	2.cc\	-ſor-	-sor-
4C/	-ga	-ga	4G/	-ga	-ga	.	.	.	4e/	-ga	-ga	.	.	.
1D	dal	dal	2.F/	dal	dal	.	.	.	1d	dal	dal	.	.	.
.	.	.	.	.	.	4G/	-ga	-ga	.	.	.	4b/	-ga	-ga
.	.	.	.	.	.	1F/	dal	dal	.	.	.	1a/	dal	dal
.	.	.	4G/	pec-	pec-	.	.	.	.	.	.	.	.	.
=25-	=25-	=25-	=25-	=25-	=25-	=25-	=25-	=25-	=25-	=25-	=25-	=25-	=25-	=25-
1D	pec-	pec-	0A	-ca-	-ca-	.	.	.	1a	pec-	pec-	.	.	.
.	.	.	.	.	.	2fny\	pec-	pec-	.	.	.	2dd\	pec-	pec-
1AA	-ca-	-ca-	.	.	.	1e	-ca-	-ca-	1a	-ca-	-ca-	1cc	-ca-	-ca-
=26-	=26-	=26-	=26-	=26-	=26-	=26-	=26-	=26-	=26-	=26-	=26-	=26-	=26-	=26-
1E	-to	-to,	1B	-to	-to,	2e\	-to	-to,	1g#X	-to	-to,	1b	-to	-to,
.	.	.	.	.	.	2e\	quan-	quan-	.	.	.	.	.	.
2A\	quan-	quan-	2c/	quan-	quan-	4e\	-do	-do	1r	.	.	1r	.	.
.	.	.	.	.	.	4e\	ri-	ri-	.	.	.	.	.	.
4A\	-do	-do	4c/	-do	-do	2f#X\	-ſor-	-sor-	.	.	.	.	.	.
4A\	ri-	ri-	4c/	ri-	ri-	.	.	.	.	.	.	.	.	.
*custos:B	*	*	*	*	*	*	*	*	*	*	*	*	*	*
!LO:LB:g=original	!	!	!	!	!	!	!	!	!	!	!	!	!	!
=27-	=27-	=27-	=27-	=27-	=27-	=27-	=27-	=27-	=27-	=27-	=27-	=27-	=27-	=27-
4.B\	-ſor-	-sor-	4.d\	-ſor-	-sor-	1g	-ſe	-se,	1r	.	.	1r	.	.
8A\	-ſe il	-se il	8c/	-ſe il	-se il	.	.	.	.	.	.	.	.	.
4G\	tuo	tuo	4B/	tuo	tuo	.	.	.	.	.	.	.	.	.
4G\	fig-	fi-	4B/	fi-	fi-	.	.	.	.	.	.	.	.	.
4A\	-liuol’	-gliol’	4c/	-gliuol’	-gliol’	1r	.	.	2a\	quan-	quan-	2cc\	quan-	quan-
4B\	a-	a-	4d\	a-	a-	.	.	.	.	.	.	.	.	.
2c\	-ma-	-ma-	2e\	-ma-	-ma-	.	.	.	4a\	-do	-do	4cc\	-do	-do
.	.	.	.	.	.	.	.	.	4a\	ri-	ri-	4cc\	ri-	ri-
=28-	=28-	=28-	=28-	=28-	=28-	=28-	=28-	=28-	=28-	=28-	=28-	=28-	=28-	=28-
1G	-to	-to	2d\	-to	-to,	4r	.	.	4.b\	-ſor-	-sor-	4.dd\	-ſor-	-sor-
.	.	.	.	.	.	4d\	quan-	quan-	.	.	.	.	.	.
.	.	.	.	.	.	.	.	.	8a\	-ſe il	-se il	8cc\	-ſe il	-se il
*	*	*	*	*	*	*	*	*	*custos:g	*	*	*custos:b	*	*
!	!	!	!	!	!	!	!	!	!LO:LB:g=original	!	!	!LO:LB:g=original	!	!
.	.	.	2r	.	.	4d\	-do	-do	4gny\	tuo	tuo	4b/	tuo	tuo
.	.	.	.	.	.	4d\	ri-	ri-	4g\	fig-	fi-	4b/	fig-	fi-
1r	.	.	2A/	quan-	quan-	4e\	-ſor-	-sor-	4a\	-liuol’	-gliol’	4cc\	-liuol	-gliol’
.	.	.	.	.	.	4d\	-ſe il	-se il	4b\	a-	a-	4dd\	a-	a-
.	.	.	4A/	-do	-do	4c/	tuo	tuo	2cc\	-ma-	-ma-	2ee\	-ma-	-ma-
.	.	.	4A/	ri-	ri-	4c/	fig-	fi-	.	.	.	.	.	.
*	*	*	*custos:B	*	*	*	*	*	*	*	*	*	*	*
!	!	!	!LO:LB:g=original	!	!	!	!	!	!	!	!	!	!	!
=29-	=29-	=29-	=29-	=29-	=29-	=29-	=29-	=29-	=29-	=29-	=29-	=29-	=29-	=29-
1r	.	.	4.B/	-ſor-	-sor-	2.d\	-liuol’-	-glio’l	1b	-to	-to,	0dd	-to	-to,
.	.	.	8A/	-ſe il	-se il	.	.	.	.	.	.	.	.	.
.	.	.	4G/	tuo	tuo	.	.	.	.	.	.	.	.	.
.	.	.	4G/	fi-	fi-	4e\	-a	-a	.	.	.	.	.	.
*	*	*	*	*	*	*custos:f	*	*	*	*	*	*	*	*
!	!	!	!	!	!	!LO:LB:g=original	!	!	!	!	!	!	!	!
2D/	quan-	quan-	4A/	-gliuol’	-gliol’	4f#X\	ma-	ma-	1r	.	.	.	.	.
.	.	.	4B/	a-	a-	2g	.	.	.	.	.	.	.	.
4D/	-do	-do	2A/	-ma-	-ma-	.	.	.	.	.	.	.	.	.
!	!	!	!	!	!	!LO:SIC:s=4f#\	!	!	!	!	!	!	!	!
4D/	ri-	ri-	.	.	.	4f#X\	.	.	.	.	.	.	.	.
=30-	=30-	=30-	=30-	=30-	=30-	=30-	=30-	=30-	=30-	=30-	=30-	=30-	=30-	=30-
4.E/	-ſor-	-sor-	4G/	-to	-to,	1g	-to	-to,	4r	.	.	4r	.	.
.	.	.	4G/	il	il	.	.	.	4g\	il	il	4b/	il	il
8D/	-ſe il	-se il	.	.	.	.	.	.	.	.	.	.	.	.
4C/	tuo	tuo	4g\	tuo	tuo	.	.	.	4e/	tuo	tuo	4ee\	tuo	tuo
4C/	fig-	fi-	4e\	fi-	fi-	.	.	.	4g\	fig-	fi-	4ee\	fig-	fi-
4D/	-liuol’	-gliol’	4a\	-gliuol’	-gliol’	1r	.	.	4f\	-liuol	-gliol’	4dd\	-liuol	-gliol’
4E/	a-	a-	4g\	a-	a-	.	.	.	4g\	a-	a-	4cc\	a-	a-
2F/	-ma-	-ma-	2f\	-ma-	-ma-	.	.	.	2a\	-ma-	-ma-	2cc\	-ma-	-ma-
.	.	.	.	.	.	.	.	.	.	.	.	.	.	.
=31-	=31-	=31-	=31-	=31-	=31-	=31-	=31-	=31-	=31-	=31-	=31-	=31-	=31-	=31-
1C	-to	-to,	1e	-to	-to,	2r	.	.	2.g\	-to	-to,	1cc	-to	-to,
.	.	.	.	.	.	1g	Dhe	deh	.	.	.	.	.	.
.	.	.	.	.	.	.	.	.	4a\	.	.	.	.	.
*custos:G	*	*	*	*	*	*	*	*	*	*	*	*	*	*
!LO:LB:g=original	!	!	!	!	!	!	!	!	!	!	!	!	!	!
1G	Dhe	deh	1d	Dhe	deh	.	.	.	1b	.	.	2r	.	.
.	.	.	.	.	.	1d\	fa	fa,	.	.	.	1dd\	Dhe	deh,
=32-	=32-	=32-	=32-	=32-	=32-	=32-	=32-	=32-	=32-	=32-	=32-	=32-	=32-	=32-
1D	fa	fa,	1f	fa	fa,	.	.	.	1a	Dhe	deh	.	.	.
*	*	*	*	*	*	*	*ij	*ij	*	*	*	*	*	*
.	.	.	.	.	.	1A	Dhe	deh	.	.	.	1ff	fa	fa,
1A	Dhe	deh	1c	Dhe	deh	.	.	.	1cc	fa	fa,	.	.	.
.	.	.	.	.	.	2c/	fa	fa,	.	.	.	1ee\	Dhe	deh,
*	*	*	*	*	*	*	*Xij	*Xij	*	*	*	*	*	*
=33-	=33-	=33-	=33-	=33-	=33-	=33-	=33-	=33-	=33-	=33-	=33-	=33-	=33-	=33-
2.c\	fa	fa	2.e\	fa	fa	4r	.	.	4r	.	.	.	.	.
.	.	.	.	.	.	4c/	Dhe	deh	4g\	Dhe	deh	.	.	.
*	*	*	*	*	*	*	*	*	*custos:cc	*	*	*	*	*
!	!	!	!	!	!	!	!	!	!LO:LB:g=original	!	!	!	!	!
.	.	.	.	.	.	2.e\	fa	fa	4cc\	fa	fa	2.gg\	fa	fa,
4G\	ch’an-	ch’an-	4d\	ch’an-	ch’an-	.	.	.	4b\	ch’an-	ch’an-	.	.	.
*	*	*	*custos:c	*	*	*	*	*	*	*	*	*	*	*
!	!	!	!LO:LB:g=original	!	!	!	!	!	!	!	!	!	!	!
2.A\	-ch’io	-ch’io	2.c/	-ch’io	-ch’io	.	.	.	2.a\	-ch’io	-ch’io	.	.	.
.	.	.	.	.	.	4d\	ch’an-	ch’an-	.	.	.	4ff\	ch’an-	ch’an-
.	.	.	.	.	.	2.c/	-ch’io	-ch’io	.	.	.	2.ee\	-ch’io	-ch’io
4E/	ri-	ri-	4B/	ri-	ri-	.	.	.	4g\	ri-	ri-	.	.	.
=34-	=34-	=34-	=34-	=34-	=34-	=34-	=34-	=34-	=34-	=34-	=34-	=34-	=34-	=34-
2.F/	-ſor-	-sor-	2.A/	-ſor-	-sor-	.	.	.	2.f\	-ſor-	-sor-	.	.	.
.	.	.	.	.	.	4B/	ri-	ri-	.	.	.	4dd\	ri-	ri-
*	*	*	*	*	*	*	*	*	*	*	*	*custos:cc	*	*
!	!	!	!	!	!	!	!	!	!	!	!	!LO:LB:g=original	!	!
.	.	.	.	.	.	2.A/	-ſor-	-sor-	.	.	.	2.cc\	-ſor-	-sor-
4C/	-ga	-ga	4G/	-ga	-ga	.	.	.	4e/	-ga	-ga	.	.	.
1D	dal	dal	2.F/	dal	dal	.	.	.	1d	dal	dal	.	.	.
.	.	.	.	.	.	4G/	-ga	-ga	.	.	.	4b/	-ga	-ga
.	.	.	.	.	.	1F/	dal	dal	.	.	.	1a/	dal	dal
.	.	.	4G/	pec-	pec-	.	.	.	.	.	.	.	.	.
=35-	=35-	=35-	=35-	=35-	=35-	=35-	=35-	=35-	=35-	=35-	=35-	=35-	=35-	=35-
1D	pec-	pec-	0A	-ca-	-ca-	.	.	.	1a	pec-	pec-	.	.	.
.	.	.	.	.	.	2fny\	pec-	pec-	.	.	.	2dd\	pec-	pec-
1AA	-ca-	-ca-	.	.	.	1e	-ca-	-ca-	1a	-ca-	-ca-	1cc	-ca-	-ca-
=36-	=36-	=36-	=36-	=36-	=36-	=36-	=36-	=36-	=36-	=36-	=36-	=36-	=36-	=36-
00E	-to.	-to.	00B	-to.	-to.	00e	-to.	-to.	00g#X	-to.	-to.	00b	-to.	-to.
==	==	==	==	==	==	==	==	==	==	==	==	==	==	==
*-	*-	*-	*-	*-	*-	*-	*-	*-	*-	*-	*-	*-	*-	*-
!!!system-decoration: [(s1,s2,s3,s4,s5)]
!!!ENC: Filip Voros
!!!END: 2022-06-29
!!!ENC: Natalia Wrzos
!!!END: 2022-07-16
!!!ENC-modern: Katarzyna Serwa
!!!END-modern: 2022-08-14
!!!filter-modern: sic -sq | shed -e "s/LO:DY:(a|b|rj)/LO:dy:$1/L" | autostem -r | tie -s | shed -e "s/-//B" | shed -k -e "s/[<>]//g" | shed -e "s/^custos:/Xcustos:/I" | shed -e "s/TX(.*):t=P:/tx$1:t=P:/LG" | shed -e "s/^(\d+[\/\\]right)/$1yy/I; s/^(\d+[\/\\]left)/$1yy/I" | humtr -p | modori -m
